svg/fluentui-system-icons/ic_fluent_projection_screen_text_24_filled.svg

<svg width="24" height="24" viewBox="0 0 24 24" fill="none" xmlns="http://www.w3.org/2000/svg">
<path d="M2 4.5C2 3.67157 2.67157 3 3.5 3H20.5C21.3284 3 22 3.67157 22 4.5C22 5.15311 21.5826 5.70873 21 5.91465V13.25C21 15.3211 19.3211 17 17.25 17H12.75V19.5H16.25C16.6642 19.5 17 19.8358 17 20.25C17 20.6642 16.6642 21 16.25 21H7.75C7.33579 21 7 20.6642 7 20.25C7 19.8358 7.33579 19.5 7.75 19.5H11.25V17H6.75C4.67893 17 3 15.3211 3 13.25V5.91465C2.4174 5.70873 2 5.15311 2 4.5ZM9 7.75C9 8.16421 9.33579 8.5 9.75 8.5H13.75C14.1642 8.5 14.5 8.16421 14.5 7.75C14.5 7.33579 14.1642 7 13.75 7H9.75C9.33579 7 9 7.33579 9 7.75ZM9.75 13C9.33579 13 9 13.3358 9 13.75C9 14.1642 9.33579 14.5 9.75 14.5H13.75C14.1642 14.5 14.5 14.1642 14.5 13.75C14.5 13.3358 14.1642 13 13.75 13H9.75ZM8.75 10C8.33579 10 8 10.3358 8 10.75C8 11.1642 8.33579 11.5 8.75 11.5H15.25C15.6642 11.5 16 11.1642 16 10.75C16 10.3358 15.6642 10 15.25 10H8.75Z" fill="#212121"/>
</svg>

<svg xmlns="http://www.w3.org/2000/svg" width="24" height="24"><path d="M2 4.5A1.5 1.5 0 0 1 3.5 3h17a1.5 1.5 0 0 1 .5 2.915v7.335A3.75 3.75 0 0 1 17.25 17h-4.5v2.5h3.5a.75.75 0 0 1 0 1.5h-8.5a.75.75 0 0 1 0-1.5h3.5V17h-4.5A3.75 3.75 0 0 1 3 13.25V5.915A1.5 1.5 0 0 1 2 4.5Zm7 3.25c0 .414.336.75.75.75h4a.75.75 0 0 0 0-1.5h-4a.75.75 0 0 0-.75.75ZM9.75 13a.75.75 0 0 0 0 1.5h4a.75.75 0 0 0 0-1.5h-4Zm-1-3a.75.75 0 0 0 0 1.5h6.5a.75.75 0 0 0 0-1.5h-6.5Z"/></svg>
